assets/svg/1F62F.svg

<svg xmlns="http://www.w3.org/2000/svg" viewBox="0 0 64 64" enable-background="new 0 0 64 64"><path fill="#fbb041" d="m64.12 32.06c0 17.71-14.352 32.06-32.06 32.06-17.713-.0001-32.07-14.352-32.07-32.06 0-17.706 14.352-32.06 32.06-32.06 17.706 0 32.06 14.355 32.06 32.06"/><g opacity=".987"><path fill="#e79d3c" d="m15.258 41.44c-5.683-12.194-5.936-25.312-.8-36.16-8.704 5.735-14.458 15.58-14.458 26.786 0 17.706 14.352 32.06 32.06 32.06.313 0 .622-.04.935-.048-7.35-6.189-13.544-13.631-17.742-22.64"/></g><g fill="#fff"><path d="m27.555 26.845c0 5.394-2.915 9.758-6.514 9.758-3.6 0-6.519-4.364-6.519-9.758 0-5.389 2.918-9.757 6.519-9.757 3.599 0 6.514 4.368 6.514 9.757"/><path d="m49.605 26.845c0 5.394-2.919 9.758-6.515 9.758-3.6 0-6.519-4.364-6.519-9.758 0-5.389 2.919-9.757 6.519-9.757 3.597 0 6.515 4.368 6.515 9.757"/></g><g fill="#25333a"><path d="m25.25 26.845c0 2.824-1.885 5.113-4.213 5.113-2.333 0-4.218-2.289-4.218-5.113 0-2.822 1.885-5.111 4.218-5.111 2.328-.0001 4.213 2.288 4.213 5.111"/><path d="m47.3 26.845c0 2.824-1.885 5.113-4.213 5.113-2.333 0-4.218-2.289-4.218-5.113 0-2.822 1.885-5.111 4.218-5.111 2.328-.0001 4.213 2.288 4.213 5.111"/></g><g fill="#633d19"><path d="m22.12 5.04c-3.929 4.189-8.34 7.405-13.639 9.651-1.208.511-.273 2.312.922 1.806 5.453-2.312 10.03-5.635 14.07-9.948.889-.947-.461-2.46-1.354-1.509"/><path d="m8.986 17.35l0 0c-.848 0-1.616-.649-1.79-1.513-.163-.796.226-1.521.99-1.846 5.03-2.126 9.401-5.228 13.381-9.469.83-.883 2.321-.535 2.804.582.293.677.162 1.43-.341 1.964-4.245 4.53-8.93 7.841-14.328 10.13-.233.1-.475.152-.716.152m13.773-11.85c-4.212 4.463-8.756 7.679-13.979 9.893-.083.353.111.499.329.404 5.2-2.202 9.716-5.397 13.813-9.766.04-.043.133-.143.056-.321-.061-.138-.175-.21-.219-.21"/><path d="m42.01 5.04c3.928 4.189 8.34 7.405 13.639 9.651 1.208.511.273 2.312-.923 1.806-5.453-2.312-10.03-5.635-14.07-9.948-.89-.947.46-2.46 1.354-1.509"/><path d="m55.14 17.35c-.242 0-.483-.052-.717-.15-5.398-2.289-10.08-5.6-14.328-10.13-.503-.535-.634-1.287-.341-1.964.483-1.117 1.973-1.469 2.804-.582 3.98 4.241 8.356 7.342 13.382 9.469.765.325 1.152 1.049.99 1.846-.175.861-.943 1.511-1.79 1.511m-13.782-11.81c-.09 0-.167.067-.21.17-.077.178.016.277.055.321 4.098 4.368 8.614 7.564 13.813 9.766l.123.032c.143 0 .273-.154.301-.293-5.318-2.356-9.863-5.572-13.991-9.976-.032-.012-.061-.02-.091-.02"/><ellipse cx="32.06" cy="51.28" rx="8.122" ry="8.396"/></g></svg>

<?xml version="1.0" encoding="UTF-8" standalone="no"?>
<!-- Generator: Adobe Illustrator 16.0.0, SVG Export Plug-In . SVG Version: 6.00 Build 0)  -->

<svg
   xmlns:dc="http://purl.org/dc/elements/1.1/"
   xmlns:cc="http://creativecommons.org/ns#"
   xmlns:rdf="http://www.w3.org/1999/02/22-rdf-syntax-ns#"
   xmlns:svg="http://www.w3.org/2000/svg"
   xmlns="http://www.w3.org/2000/svg"
   xmlns:sodipodi="http://sodipodi.sourceforge.net/DTD/sodipodi-0.dtd"
   xmlns:inkscape="http://www.inkscape.org/namespaces/inkscape"
   version="1.1"
   id="Layer_1"
   x="0px"
   y="0px"
   width="64px"
   height="64px"
   viewBox="0 0 64 64"
   enable-background="new 0 0 64 64"
   xml:space="preserve"
   inkscape:version="0.48.5 r10040"
   sodipodi:docname="1F62F.svg"
   inkscape:export-filename="D:\TESTINGEMOJI\SVGTEST\1F62F.png"
   inkscape:export-xdpi="90"
   inkscape:export-ydpi="90"><metadata
   id="metadata5015"><rdf:RDF><cc:Work
       rdf:about=""><dc:format>image/svg+xml</dc:format><dc:type
         rdf:resource="http://purl.org/dc/dcmitype/StillImage" /><dc:title></dc:title></cc:Work></rdf:RDF></metadata><defs
   id="defs5013" /><sodipodi:namedview
   pagecolor="#ffffff"
   bordercolor="#666666"
   borderopacity="1"
   objecttolerance="10"
   gridtolerance="10"
   guidetolerance="10"
   inkscape:pageopacity="0"
   inkscape:pageshadow="2"
   inkscape:window-width="640"
   inkscape:window-height="480"
   id="namedview5011"
   showgrid="false"
   inkscape:zoom="3.6875"
   inkscape:cx="32"
   inkscape:cy="32"
   inkscape:window-x="642"
   inkscape:window-y="392"
   inkscape:window-maximized="0"
   inkscape:current-layer="Layer_1" />
<g
   id="g4947">
	<g
   id="g4949">
		<g
   id="g4951">
			<path
   fill="#FBB041"
   d="M64.123,32.061c0,17.71-14.352,32.062-32.058,32.062C14.352,64.122,0,49.771,0,32.061     C0,14.355,14.352,0,32.065,0C49.771,0,64.123,14.355,64.123,32.061z"
   id="path4953" />
		</g>
	</g>
	<g
   opacity="0.9866"
   id="g4955">
		<g
   id="g4957">
			<g
   id="g4959">
				<path
   fill="#E79D3C"
   d="M15.258,41.438c-5.683-12.194-5.936-25.312-0.8-36.16C5.754,11.013,0,20.858,0,32.064      c0,17.706,14.352,32.062,32.065,32.062c0.313,0,0.622-0.04,0.935-0.048C25.65,57.889,19.456,50.447,15.258,41.438z"
   id="path4961" />
			</g>
		</g>
	</g>
	<g
   id="g4963">
		<g
   id="g4965">
			<g
   id="g4967">
				<path
   fill="#FFFFFF"
   d="M27.555,26.845c0,5.394-2.915,9.758-6.514,9.758c-3.6,0-6.519-4.364-6.519-9.758      c0-5.389,2.918-9.757,6.519-9.757C24.64,17.088,27.555,21.456,27.555,26.845z"
   id="path4969" />
			</g>
		</g>
		<g
   id="g4971">
			<g
   id="g4973">
				<path
   fill="#FFFFFF"
   d="M49.605,26.845c0,5.394-2.919,9.758-6.515,9.758c-3.6,0-6.519-4.364-6.519-9.758      c0-5.389,2.919-9.757,6.519-9.757C46.687,17.088,49.605,21.456,49.605,26.845z"
   id="path4975" />
			</g>
		</g>
		<g
   id="g4977">
			<g
   id="g4979">
				<path
   fill="#25333A"
   d="M25.254,26.845c0,2.824-1.885,5.113-4.213,5.113c-2.333,0-4.218-2.289-4.218-5.113      c0-2.822,1.885-5.111,4.218-5.111C23.369,21.733,25.254,24.022,25.254,26.845z"
   id="path4981" />
			</g>
		</g>
		<g
   id="g4983">
			<g
   id="g4985">
				<path
   fill="#25333A"
   d="M47.304,26.845c0,2.824-1.885,5.113-4.213,5.113c-2.333,0-4.218-2.289-4.218-5.113      c0-2.822,1.885-5.111,4.218-5.111C45.419,21.733,47.304,24.022,47.304,26.845z"
   id="path4987" />
			</g>
		</g>
	</g>
	<g
   id="g4989">
		<g
   id="g4991">
			<path
   fill="#633D19"
   d="M22.122,5.042c-3.929,4.189-8.34,7.405-13.639,9.651c-1.208,0.511-0.273,2.312,0.922,1.806     c5.453-2.312,10.027-5.635,14.071-9.948C24.365,5.604,23.015,4.091,22.122,5.042z"
   id="path4993" />
		</g>
		<g
   id="g4995">
			<path
   fill="#633D19"
   d="M8.986,17.35L8.986,17.35c-0.848,0-1.616-0.649-1.79-1.513c-0.163-0.796,0.226-1.521,0.99-1.846     c5.025-2.126,9.401-5.228,13.381-9.469c0.83-0.883,2.321-0.535,2.804,0.582c0.293,0.677,0.162,1.43-0.341,1.964     c-4.245,4.53-8.93,7.841-14.328,10.13C9.469,17.298,9.227,17.35,8.986,17.35z M22.759,5.5c-4.212,4.463-8.756,7.679-13.979,9.893     c-0.083,0.353,0.111,0.499,0.329,0.404c5.2-2.202,9.716-5.397,13.813-9.766c0.04-0.043,0.133-0.143,0.056-0.321     C22.917,5.572,22.803,5.5,22.759,5.5z"
   id="path4997" />
		</g>
	</g>
	<g
   id="g4999">
		<g
   id="g5001">
			<path
   fill="#633D19"
   d="M42.006,5.042c3.928,4.189,8.34,7.405,13.639,9.651c1.208,0.511,0.273,2.312-0.923,1.806     c-5.453-2.312-10.027-5.635-14.07-9.948C39.762,5.604,41.112,4.091,42.006,5.042z"
   id="path5003" />
		</g>
		<g
   id="g5005">
			<path
   fill="#633D19"
   d="M55.142,17.35c-0.242,0-0.483-0.052-0.717-0.15c-5.398-2.289-10.083-5.6-14.328-10.13     c-0.503-0.535-0.634-1.287-0.341-1.964c0.483-1.117,1.973-1.469,2.804-0.582c3.98,4.241,8.356,7.342,13.382,9.469     c0.765,0.325,1.152,1.049,0.99,1.846C56.757,16.7,55.989,17.35,55.142,17.35z M41.36,5.54c-0.09,0-0.167,0.067-0.21,0.17     c-0.077,0.178,0.016,0.277,0.055,0.321c4.098,4.368,8.614,7.564,13.813,9.766l0.123,0.032c0.143,0,0.273-0.154,0.301-0.293     c-5.318-2.356-9.863-5.572-13.991-9.976C41.419,5.548,41.39,5.54,41.36,5.54z"
   id="path5007" />
		</g>
	</g>
	<ellipse
   fill="#633D19"
   cx="32.061"
   cy="51.279"
   rx="8.122"
   ry="8.396"
   id="ellipse5009" />
</g>
</svg>
